src/vectors/cross.svg

<svg width="16" height="16" viewBox="0 0 16 16" fill="none" xmlns="http://www.w3.org/2000/svg">
<path fill-rule="evenodd" clip-rule="evenodd" d="M1.29289 1.29289C1.68342 0.902369 2.31658 0.902369 2.70711 1.29289L14.7071 13.2929C15.0976 13.6834 15.0976 14.3166 14.7071 14.7071C14.3166 15.0976 13.6834 15.0976 13.2929 14.7071L1.29289 2.70711C0.902369 2.31658 0.902369 1.68342 1.29289 1.29289Z" fill="#B3B3B3"/>
<path fill-rule="evenodd" clip-rule="evenodd" d="M14.7071 1.2929C15.0976 1.68342 15.0976 2.31659 14.7071 2.70711L2.70711 14.7071C2.31659 15.0976 1.68342 15.0976 1.2929 14.7071C0.902373 14.3166 0.902374 13.6834 1.2929 13.2929L13.2929 1.2929C13.6834 0.902372 14.3166 0.902372 14.7071 1.2929Z" fill="#B3B3B3"/>
</svg>

<svg width="16" height="16" xmlns="http://www.w3.org/2000/svg">
    <path fill="#B3B3B3" d="M1.293 1.293a1 1 0 0 1 1.414 0l12 12a1 1 0 0 1-1.414 1.414l-12-12a1 1 0 0 1 0-1.414z"/>
    <path fill="#B3B3B3" d="M14.707 1.293a1 1 0 0 1 0 1.414l-12 12a1 1 0 0 1-1.414-1.414l12-12a1 1 0 0 1 1.414 0z"/>
</svg>
